app/Resources/icons/pages.svg

<svg xmlns="http://www.w3.org/2000/svg" viewBox="0 0 24 24"><path d="M20 22H4C3.44772 22 3 21.5523 3 21V8H21V21C21 21.5523 20.5523 22 20 22ZM21 6H3V3C3 2.44772 3.44772 2 4 2H20C20.5523 2 21 2.44772 21 3V6ZM7 11V15H11V11H7ZM7 17V19H17V17H7ZM13 12V14H17V12H13Z"></path></svg>

<svg xmlns="http://www.w3.org/2000/svg" viewBox="0 0 24 24">
    <g>
        <path fill="none" d="M0 0h24v24H0z"/>
        <path d="M20 22H4a1 1 0 0 1-1-1V8h18v13a1 1 0 0 1-1 1zm1-16H3V3a1 1 0 0 1 1-1h16a1 1 0 0 1 1 1v3zM7 11v4h4v-4H7zm0 6v2h10v-2H7zm6-5v2h4v-2h-4z"/>
    </g>
</svg>
